polaris-icons/icons/newicons/CustomerPlusMajor.svg

<svg width="20" height="20" viewBox="0 0 20 20" fill="none" xmlns="http://www.w3.org/2000/svg">
<path fill-rule="evenodd" clip-rule="evenodd" d="M10 3C8.067 3 6.5 4.567 6.5 6.5C6.5 8.433 8.067 10 10 10C11.933 10 13.5 8.433 13.5 6.5C13.5 4.567 11.933 3 10 3ZM8 6.5C8 5.39543 8.89543 4.5 10 4.5C11.1046 4.5 12 5.39543 12 6.5C12 7.60457 11.1046 8.5 10 8.5C8.89543 8.5 8 7.60457 8 6.5Z" fill="black"/>
<path d="M8.97927 11C6.99392 11 5.08151 11.7483 3.62342 13.0958C3.22599 13.463 3 13.9796 3 14.5207V14.6848C3 15.9634 4.03656 17 5.31522 17H10.25C10.6642 17 11 16.6642 11 16.25C11 15.8358 10.6642 15.5 10.25 15.5H5.31522C4.86499 15.5 4.5 15.135 4.5 14.6848V14.5207C4.5 14.3979 4.55128 14.2807 4.64146 14.1974C5.8224 13.1061 7.37129 12.5 8.97927 12.5H12.3152C12.7294 12.5 13.0652 12.1642 13.0652 11.75C13.0652 11.3358 12.7294 11 12.3152 11H8.97927Z" fill="black"/>
<path d="M12 15C12 14.5858 12.3358 14.25 12.75 14.25H14.25V12.75C14.25 12.3358 14.5858 12 15 12C15.4142 12 15.75 12.3358 15.75 12.75V14.25H17.25C17.6642 14.25 18 14.5858 18 15C18 15.4142 17.6642 15.75 17.25 15.75H15.75V17.25C15.75 17.6642 15.4142 18 15 18C14.5858 18 14.25 17.6642 14.25 17.25V15.75H12.75C12.3358 15.75 12 15.4142 12 15Z" fill="black"/>
</svg>

<svg viewBox="0 0 20 20" fill="none" xmlns="http://www.w3.org/2000/svg"><path fill-rule="evenodd" clip-rule="evenodd" d="M10 3a3.5 3.5 0 1 0 0 7 3.5 3.5 0 0 0 0-7Zm-2 3.5a2 2 0 1 1 4 0 2 2 0 0 1-4 0Z" fill="#5C5F62"/><path d="M8.98 11a7.891 7.891 0 0 0-5.357 2.096 1.94 1.94 0 0 0-.623 1.425v.164a2.315 2.315 0 0 0 2.315 2.315h4.935a.75.75 0 0 0 0-1.5h-4.935a.815.815 0 0 1-.815-.815v-.164a.44.44 0 0 1 .141-.324 6.392 6.392 0 0 1 4.338-1.697h3.336a.75.75 0 0 0 0-1.5h-3.336Z" fill="#5C5F62"/><path d="M12 15a.75.75 0 0 1 .75-.75h1.5v-1.5a.75.75 0 0 1 1.5 0v1.5h1.5a.75.75 0 0 1 0 1.5h-1.5v1.5a.75.75 0 0 1-1.5 0v-1.5h-1.5a.75.75 0 0 1-.75-.75Z" fill="#5C5F62"/></svg>
